packages/foundations/icons/Food/Popsicle.svg

<svg width="24" height="24" viewBox="0 0 24 24" fill="none" xmlns="http://www.w3.org/2000/svg">
<path d="M12.8839 22.8839C13.1101 22.6577 13.25 22.3452 13.25 22V17H12.5V22C12.5 22.1383 12.4449 22.2623 12.3536 22.3536C12.2623 22.4449 12.1383 22.5 12 22.5C11.8617 22.5 11.7377 22.4449 11.6464 22.3536C11.5551 22.2623 11.5 22.1383 11.5 22V17H10.75V22C10.75 22.3452 10.8899 22.6577 11.1161 22.8839C11.3423 23.1101 11.6548 23.25 12 23.25C12.3452 23.25 12.6577 23.1101 12.8839 22.8839Z" fill="#3D474D"/>
<path fill-rule="evenodd" clip-rule="evenodd" d="M9.17157 3.17157C9.89653 2.44662 10.8952 2 12 2C13.1048 2 14.1035 2.44662 14.8284 3.17157C15.5534 3.89653 16 4.89515 16 6V15H8V6C8 4.89515 8.44662 3.89653 9.17157 3.17157ZM12 0C10.3434 0 8.84205 0.672668 7.75736 1.75736C6.67267 2.84205 6 4.34342 6 6V17H10V22C10 22.5521 10.2247 23.0531 10.5858 23.4142C10.9469 23.7753 11.4479 24 12 24C12.5521 24 13.0531 23.7753 13.4142 23.4142C13.7753 23.0531 14 22.5521 14 22V17H18V6C18 4.34342 17.3273 2.84205 16.2426 1.75736C15.1579 0.672668 13.6566 0 12 0ZM10.75 17V22C10.75 22.3452 10.8899 22.6577 11.1161 22.8839C11.3423 23.1101 11.6548 23.25 12 23.25C12.3452 23.25 12.6577 23.1101 12.8839 22.8839C13.1101 22.6577 13.25 22.3452 13.25 22V17V16.25H10.75V17ZM11.5 17V22C11.5 22.1383 11.5551 22.2623 11.6464 22.3536C11.7377 22.4449 11.8617 22.5 12 22.5C12.1383 22.5 12.2623 22.4449 12.3536 22.3536C12.4449 22.2623 12.5 22.1383 12.5 22V17H11.5Z" fill="#3D474D"/>
<path d="M13.25 16.25H10.75V17H11.5H12.5H13.25V16.25Z" fill="#3D474D"/>
</svg>

<svg xmlns="http://www.w3.org/2000/svg" fill="none" viewBox="0 0 24 24" width="100%" height="100%">
  <path fill="#3D474D" d="M12.884 22.884c.226-.226.366-.539.366-.884v-5h-.75v5a.496.496 0 0 1-.5.5.496.496 0 0 1-.5-.5v-5h-.75v5A1.246 1.246 0 0 0 12 23.25c.345 0 .658-.14.884-.366Z"/>
  <path fill="#3D474D" fill-rule="evenodd" d="M9.172 3.172A3.984 3.984 0 0 1 12 2c1.105 0 2.104.447 2.828 1.172A3.984 3.984 0 0 1 16 6v9H8V6c0-1.105.447-2.103 1.172-2.828ZM12 0a5.984 5.984 0 0 0-4.243 1.757A5.984 5.984 0 0 0 6 6v11h4v5a1.996 1.996 0 0 0 2 2 1.996 1.996 0 0 0 2-2v-5h4V6a5.984 5.984 0 0 0-1.757-4.243A5.984 5.984 0 0 0 12 0Zm-1.25 17v5A1.246 1.246 0 0 0 12 23.25 1.246 1.246 0 0 0 13.25 22v-5.75h-2.5V17Zm.75 0v5a.496.496 0 0 0 .5.5.496.496 0 0 0 .5-.5v-5h-1Z" clip-rule="evenodd"/>
  <path fill="#3D474D" d="M13.25 16.25h-2.5V17h2.5v-.75Z"/>
</svg>
